akamai.svg

<svg viewBox="0 0 24 24" xmlns="http://www.w3.org/2000/svg"><path d="M13.1431 23.4673C8.19833 21.9646 4.60455 17.4008 4.60455 12C4.60455 6.54193 8.275 1.94014 13.2948 0.476158C13.8089 0.323626 13.6758 0 13.0479 0C6.37279 0 0.95346 5.3822 0.95346 12C0.95346 18.6178 6.37279 24 13.0479 24C13.6758 24 13.7137 23.6384 13.1431 23.4673M6.90554 14.7956C6.86761 14.472 6.84824 14.1492 6.84824 13.8255C6.84824 8.55794 11.1086 4.29834 16.3762 4.29834C21.3582 4.29834 22.8415 6.52337 23.032 6.37084C23.241 6.21912 21.225 1.80698 15.3868 1.80698C10.1192 1.80698 5.8596 6.06659 5.8596 11.3342C5.8596 12.5512 6.088 13.7118 6.50605 14.7762C6.67714 15.233 6.94347 15.233 6.90554 14.7956M10.8992 7.93044C13.3711 6.84657 16.4904 6.80864 19.5515 7.89251C21.6055 8.61482 22.8039 9.64219 22.8992 9.58489C23.0702 9.50902 21.7007 7.35986 19.2473 6.42771C16.2806 5.30592 13.0863 5.89587 10.766 7.72141C10.4997 7.93044 10.5949 8.0636 10.8992 7.93044" fill="#0099cc"/></svg>

<svg viewBox="0 0 24 24" xmlns="http://www.w3.org/2000/svg"><path d="M13.143 23.467C8.198 21.965 4.605 17.401 4.605 12c0-5.458 3.67-10.06 8.69-11.524.514-.152.38-.476-.247-.476C6.373 0 .953 5.382.953 12s5.42 12 12.095 12c.628 0 .666-.362.095-.533m-6.237-8.671a8.32 8.32 0 0 1-.058-.97 9.52 9.52 0 0 1 9.528-9.528c4.982 0 6.465 2.225 6.656 2.073.209-.152-1.807-4.564-7.645-4.564a9.52 9.52 0 0 0-8.88 12.97c.17.456.436.456.399.019m3.993-6.866c2.472-1.083 5.591-1.121 8.653-.037 2.053.722 3.252 1.75 3.347 1.692.171-.076-1.198-2.225-3.652-3.157a8.71 8.71 0 0 0-8.481 1.293c-.266.21-.171.343.133.21" fill="#09c"/></svg>
